packages/foundations/assets/icons/functional/images/date & time/alarm_clock_plus_32.svg

<svg width="32" height="32" viewBox="0 0 32 32" fill="none" xmlns="http://www.w3.org/2000/svg">
<g clip-path="url(#clip0_185_642)">
<path fill-rule="evenodd" clip-rule="evenodd" d="M23.3438 4.01562C25.9062 4.01562 28 6.10942 28 8.67192C28 10.0781 27.375 11.3906 26.3438 12.2656C26.75 13.4219 27 14.6719 27 15.9844C27 18.7031 26 21.1719 24.375 23.1094L26.8125 26.3906C26.9375 26.5781 27 26.7656 27 26.9844C27 27.5469 26.5312 27.9844 26 27.9844C25.6875 27.9844 25.375 27.8594 25.1875 27.5781L22.9375 24.5156C21.0312 26.0469 18.625 26.9844 16 26.9844C13.375 26.9844 10.9688 26.0469 9.0938 24.5156L6.8125 27.5781C6.625 27.8594 6.3125 27.9844 6 27.9844C5.4688 27.9844 5 27.5156 5 26.9844C5 26.7656 5.0625 26.5781 5.2188 26.3906L7.625 23.1094C6 21.1719 5.0312 18.7031 5.0312 15.9844C5.0312 14.6719 5.25 13.4219 5.6875 12.2656C4.625 11.3906 4 10.0781 4 8.67192C4 6.10942 6.0938 4.01562 8.6875 4.01562C10.0625 4.01562 11.375 4.64063 12.25 5.67193C13.4062 5.23443 14.6875 5.01562 16 5.01562C17.3125 5.01562 18.5938 5.23443 19.75 5.67193C20.625 4.64063 21.9375 4.01562 23.3438 4.01562ZM16 7.01562C11.0625 7.01562 7.0312 11.0469 7.0312 15.9844C7.0312 20.9531 11.0625 24.9844 16 24.9844C20.9688 24.9844 25 20.9531 25 15.9844C25 11.0469 20.9688 7.01562 16 7.01562ZM8.6875 6.01562C7.2188 6.01562 6 7.20312 6 8.67192C6 9.29692 6.2188 9.85943 6.5938 10.3281C7.5 8.79693 8.8125 7.51562 10.3438 6.57812C9.875 6.20312 9.2812 6.01562 8.6875 6.01562ZM23.3125 5.98443C22.75 5.98443 22.25 6.17193 21.6875 6.57812C23.1875 7.51562 24.4688 8.79693 25.4062 10.3281C25.7812 9.85943 26 9.29692 26 8.67192C26 7.20312 24.7812 5.98443 23.3125 5.98443ZM11 16.0156C11 15.4843 11.4375 15.0156 12 15.0156H15V12.0156C15 11.4843 15.4375 11.0156 16 11.0156C16.5312 11.0156 17 11.4843 17 12.0156V15.0156H20C20.5312 15.0156 21 15.4843 21 16.0156C21 16.5781 20.5312 17.0156 20 17.0156H17V20.0156C17 20.5781 16.5312 21.0156 16 21.0156C15.4375 21.0156 15 20.5781 15 20.0156V17.0156H12C11.4375 17.0156 11 16.5781 11 16.0156Z" fill="#1A1C1F"/>
</g>
<defs>
<clipPath id="clip0_185_642">
<rect width="32" height="32" fill="white"/>
</clipPath>
</defs>
</svg>

<svg xmlns="http://www.w3.org/2000/svg" width="32" height="32" fill="none"><g clip-path="url(#a)"><path fill="#1A1C1F" fill-rule="evenodd" d="M23.344 4.016A4.67 4.67 0 0 1 28 8.672a4.72 4.72 0 0 1-1.656 3.594c.406 1.156.656 2.406.656 3.718 0 2.72-1 5.188-2.625 7.125l2.438 3.282A1.007 1.007 0 0 1 26 27.985c-.314 0-.626-.126-.814-.407l-2.25-3.062c-1.906 1.53-4.312 2.468-6.937 2.468s-5.031-.937-6.906-2.468l-2.281 3.062c-.188.281-.5.406-.813.406-.531 0-1-.468-1-1 0-.218.063-.406.219-.593l2.406-3.282a11 11 0 0 1-2.594-7.125c0-1.312.219-2.562.657-3.718A4.65 4.65 0 0 1 4 8.672c0-2.563 2.094-4.656 4.688-4.656 1.374 0 2.687.625 3.562 1.656 1.156-.438 2.438-.656 3.75-.656 1.313 0 2.594.218 3.75.656a4.72 4.72 0 0 1 3.594-1.656m-7.344 3c-4.937 0-8.969 4.03-8.969 8.968 0 4.97 4.032 9 8.969 9 4.969 0 9-4.03 9-9 0-4.937-4.031-8.968-9-8.968m-7.312-1C7.218 6.016 6 7.203 6 8.672c0 .625.219 1.187.594 1.656.906-1.531 2.218-2.812 3.75-3.75a2.66 2.66 0 0 0-1.656-.562m14.625-.032c-.563 0-1.063.188-1.625.594 1.5.938 2.78 2.219 3.718 3.75A2.62 2.62 0 0 0 26 8.672a2.71 2.71 0 0 0-2.687-2.688M11 16.016c0-.532.438-1 1-1h3v-3c0-.532.438-1 1-1 .531 0 1 .468 1 1v3h3c.531 0 1 .468 1 1 0 .562-.469 1-1 1h-3v3c0 .562-.469 1-1 1-.562 0-1-.438-1-1v-3h-3c-.562 0-1-.438-1-1" clip-rule="evenodd"/></g><defs><clipPath id="a"><path fill="#fff" d="M0 0h32v32H0z"/></clipPath></defs></svg>
